X:1
T:Tangerine
T:Tangerine
T:Victor Schertzinger
T:Johnny Mercer
C:Victor  Schertzinger
Z:All Rights Reserved
L:1/4
M:4/4
K:F
V:1 treble 
%%MIDI program 4
V:1
 x2 d B ||"Gm7" A4- |"C7" A z c A |"F" G F"Bb" D2- |"Am" D2"D7b9" F D |"Gm7" F D"C7" E D | %6
w: Tan- ger-|ine|* she is|all they claim|* with her|eyes of night and|
"Gm7" F D"C7" E C |"F" A4 |"Am7b5" z2"D7#9" d B |"Gm7" A4- |"C7" A2 c A |"F" G F D2- | %12
w: lips as bright as|flame|Tan- ger-|ine|* when she|danc- es by|
"Bm7b5" D2"E7#9" E F |"A" E ^F A F |"Bm" A F"E7" =B ^c |"A7" A4- |"D7#9" A2 d B ||"Gm7" A4- | %18
w: * sen- or-|i- tas stare and|ca- bal- le- ros|sigh|* and Ive|seen|
"C7" A2 c A |"F" G F"Bb" D2- |"Am" D2"D7b9" F D |"Gm7" F D"C7" E D |"Gm7" F D"C7" E C |"Eb7" A4- | %24
w: * toasts to|Tan- ger- ine|* raised in|ev- 'ry bar a-|cross the Ar- gen-|tine|
"D7#9" A2 B c |"Gm" d B A c/B/ |"Em7b5" A3"A7#9" G/^G/ |"Dm" A F E G/F/ |"G7" E3 D |"Gm" ^C D F B | %30
w: * yes she|has them all on the|run but her|heeart be- longs to just|one her|heart be- longs to|
"C7" d2 E2 |"F" F4- |"D7#9" F2 z2 |] %33
w: Tan- ger-|ine.||

